app/assets/images/heroicons/mini/musical-note.svg

<svg width="20" height="20" viewBox="0 0 20 20" fill="none" xmlns="http://www.w3.org/2000/svg">
<path fill-rule="evenodd" clip-rule="evenodd" d="M17.721 1.5987C17.8974 1.74108 18 1.95564 18 2.18238V13.472C18 14.5314 17.261 15.4473 16.2255 15.6712L14.1848 16.1125C12.804 16.411 11.5 15.3589 11.5 13.9461C11.5 12.9029 12.2275 12.0009 13.247 11.78L15.9088 11.2032C16.2538 11.1285 16.5 10.8232 16.5 10.4702V6.11187L8.5 7.8416V15.5261C8.5 16.5855 7.76097 17.5014 6.7255 17.7253L4.68397 18.1667C3.30357 18.4652 2 17.4133 2 16.001C2 14.9572 2.72854 14.0549 3.74894 13.835L6.408 13.262C6.7534 13.1876 7 12.8822 7 12.5288V4.23643C7 3.8833 7.24634 3.578 7.5915 3.50337L17.0915 1.44932C17.3131 1.4014 17.5445 1.45631 17.721 1.5987Z" fill="#0F172A"/>
</svg>

<svg xmlns="http://www.w3.org/2000/svg" viewBox="0 0 20 20" fill="currentColor" aria-hidden="true" data-slot="icon">
  <path fill-rule="evenodd" d="M17.721 1.599a.75.75 0 0 1 .279.583v11.29a2.25 2.25 0 0 1-1.774 2.2l-2.041.44a2.216 2.216 0 0 1-.938-4.332l2.662-.577a.75.75 0 0 0 .591-.733V6.112l-8 1.73v7.684a2.25 2.25 0 0 1-1.774 2.2l-2.042.44a2.216 2.216 0 1 1-.935-4.331l2.659-.573A.75.75 0 0 0 7 12.529V4.236a.75.75 0 0 1 .591-.733l9.5-2.054a.75.75 0 0 1 .63.15Z" clip-rule="evenodd"/>
</svg>
